public/assets/formheimur/fjoll.svg

<svg viewBox="0 0 379 280" fill="none" xmlns="http://www.w3.org/2000/svg" class="formheimur-fjoll"><style>.formheimur-fjoll{--litur1: var(--theme-color-primary, #dcddde);--litur2: var(--theme-color-secondary, #ebeced);--litur3: var(--theme-color-tertiary, #f3f4f5)}[data-color-theme=trustworthy] .formheimur-fjoll{--litur2: var(--theme-color-tertiary);--litur3: var(--theme-color-secondary)}[data-color-theme=friendly] .formheimur-fjoll{--litur1: var(--theme-color-secondary);--litur2: var(--theme-color-primary)}[data-color-theme=lively] .formheimur-fjoll{--litur1: var(--theme-color-secondary);--litur2: var(--theme-color-tertiary);--litur3: var(--theme-color-primary)}[data-color-theme=colorful] .formheimur-fjoll{--litur1: var(--theme-color-secondary);--litur2: var(--theme-color-primary)}</style><path d="M379 273V0H0v273h379z" fill="var(--litur3)"/><path d="M379 205H0v75h379v-75z" fill="var(--litur2)"/><path d="M181 205H67l57-91 57 91z" fill="var(--litur1)"/><path d="M233 205h-69l34-56 35 56z" fill="var(--litur1)"/></svg>

<svg viewBox="0 0 379 280" fill="none" xmlns="http://www.w3.org/2000/svg" class="formheimur-fjoll"><style>.formheimur-fjoll {
		--litur1: var(--theme-color-primary, #dcddde);
		--litur2: var(--theme-color-secondary, #ebeced);
		--litur3: var(--theme-color-tertiary, #f3f4f5);
	}

	/* Frávik */
	[data-color-theme=&apos;trustworthy&apos;] .formheimur-fjoll {
		--litur2: var(--theme-color-tertiary);
		--litur3: var(--theme-color-secondary);
	}
	[data-color-theme=&apos;friendly&apos;] .formheimur-fjoll {
		--litur1: var(--theme-color-secondary);
		--litur2: var(--theme-color-primary);
	}
	[data-color-theme=&apos;lively&apos;] .formheimur-fjoll {
		--litur1: var(--theme-color-secondary);
		--litur2: var(--theme-color-tertiary);
		--litur3: var(--theme-color-primary);
	}
	[data-color-theme=&apos;colorful&apos;] .formheimur-fjoll {
		--litur1: var(--theme-color-secondary);
		--litur2: var(--theme-color-primary);
	}</style><path d="M379 273L379 0L0 0L0 273L379 273Z" fill="var(--litur3)"/><path d="M379 205H0V280H379V205Z" fill="var(--litur2)"/><path d="M181 205H67L124 114L181 205Z" fill="var(--litur1)"/><path d="M233 205H164L198 149L233 205Z" fill="var(--litur1)"/></svg>
